!!!!SEGMENT: pl-sa--173-a-v-3--004-004_szczurowski-jacek--missa-ex-d-sanctus.krn
!!!cenid: 17xx:256
!!!COM: Szczurowski, Jacek
!!!COM-rismID: pe30017605
!!!CDT: 1716/08/15-~1733
!!!CNT: Polish
!!!OPR: Missa ex D
!!!OTL: Sanctus
!!!OMV: 004
!!!PDT:
!!!AGN: Sacred; Mass
!!!YEC: Copyright 2022 Narodowy Instytut Fryderyka Chopina (https://polishscores.org)
!!!YEM: License CC-BY-4.0 (https://creativecommons.org/licenses/by/4.0)
!!!SMS-siglum: PL-SA
!!!SMS-shelfmark: 173/A V 3
!!!SMS-shelfwork: 004-004 M
!!!NIFC-rismSourceID: 1001035621
!!!NIFC-rismChildID: 1001035621
!!!NIFC-islandoraID: none
!!!URL-pdf-islandora:
!!!URL-scan: https://bc.bdsandomierz.pl/dlibra/publication/1507/edition/1475/content @EN{Scan in the Sandomierz Diocese Digital Library} @PL{Skany w portalu Cyfrowa Biblioteka Diecezjalna w Sandomierzu}
!!!IIIF:
!!!ONB-nifc: UWAGA: części Mszy: Kyrie, Gloria, Credo, Sanctus, Benedictus, Agnus Dei
!!!AIN: 4 empty 2 violn 1 vox
!!!key: D
**kern	**fb	**kern	**kern	**kern	**text	**kern	**text	**kern	**kern
*	*	*group3	*group3	*group2	*	*group2	*	*group1	*group1
*part7	*	*part6	*part5	*part4	*	*part3	*	*part2	*part1
*staff7	*	*staff6	*staff5	*staff4	*	*staff3	*	*staff2	*staff1
*Iempty	*	*Ivioln	*Ivioln	*Iempty	*	*Ivox	*	*Iempty	*Iempty
*I"Fundamento	*	*I"Violino. 2do.	*I"Violino 1mo.	*I"Baſso	*	*I"Canto	*	*I"Clarino 2do. ex D.	*I"Clarino. 1mo. Ex. D.
*I'org	*	*I'vl 2	*I'vl 1	*I'B	*	*I'S	*	*I'clno 2	*I'clno 1
*Iorgan	*	*Ivioln	*Ivioln	*Ibass	*	*Isoprn	*	*Iclrno	*Iclrno
*ICklav	*	*ICstr	*ICstr	*ICvox	*	*ICvox	*	*ICbras	*ICbras
*IGcont	*	*	*	*IGsolo	*	*IGsolo	*	*	*
*mI"Basso continuo	*	*mI"Violino II	*mI"Violino I	*mI"Basso	*	*mI"Soprano	*	*mI"Clarino II in D	*mI"Clarino I in D
*clefF4	*	*clefG2	*clefG2	*clefF4	*	*clefC1	*	*clefG2	*clefG2
*	*	*	*	*	*	*mclefG2	*	*	*
*	*	*	*	*	*	*	*	*ITrd-1c-2	*ITrd-1c-2
*k[f#c#]	*	*k[f#c#]	*k[f#c#]	*k[f#c#]	*	*k[c#f#]	*	*k[f#c#]	*k[f#c#]
*	*	*	*	*	*	*mk[f#c#]	*	*	*
*D:	*	*D:	*D:	*D:	*	*D:	*	*D:	*D:
*M4/4	*	*M4/4	*M4/4	*M4/4	*	*M4/4	*	*M4/4	*M4/4
*met(c)	*	*met(c)	*met(c)	*met(c)	*	*met(c)	*	*met(c)	*met(c)
*mmet(c)	*	*mmet(c)	*mmet(c)	*mmet(c)	*	*mmet(c)	*	*mmet(c)	*mmet(c)
=1	=1	=1	=1	=1	=1	=1	=1	=1	=1
!!!OMD:
!!!OMD-mod: Adagio
*	*above	*	*	*	*	*	*	*	*
!LO:TX:a:t=ada(gio):mod=	!	!LO:TX:a:t=ada(gio):mod=	!LO:TX:a:t=ada(gio):mod=	!LO:TX:a:t=ada(gio):mod=	!	!LO:TX:a:t=ada(gio):mod=	!	!LO:TX:a:t=Ada(gio):mod=	!LO:TX:a:t=adagio.:mod=
!LO:TX:b:t=Sanctus. Dominus.:mod=	!	!LO:TX:b:t=Sanctus.:mod=	!LO:TX:b:t=Sanctus. Dominus.:mod=	!	!	!	!	!LO:TX:b:t=Sanctus.:mod=	!LO:TX:b:t=Sanctus.:mod=
!	!	!	!	!	!	!LO:TX:t=P:problem=w źródle znak przykluczowy c# zapisany na wysokości cc#	!	!	!
4D\	.	4ff#\	4aa\	4D\	San-	4dd\	San-	4dd\	4ff#\
4F#\	.	4ff#\	4aa\	4F#\	-ctus	4dd\	-ctus	4dd\	4ff#\
*	*	*	*	*	*	*	*ij	*	*
4G\	.	4gg\	4bb\	4G\	San-	4dd\	San-	4ee\	4gg\
!LO:TX:a:t=tutti:mod=	!	!	!	!	!	!	!	!	!
4A\	.	4cc#\	4ee\	4A\	.	4cc#\	-ctus	4a/	4ee\
*	*	*	*	*	*	*	*Xij	*	*
=2	=2	=2	=2	=2	=2	=2	=2	=2	=2
4D\	.	4dd\	4ff#\	4D/	-ctus	4dd\	San-	4dd\	4ff#\
4r	.	4r	4r	4r	.	8a\	-ctus	4r	4r
.	.	.	.	.	.	8b\	.	.	.
8r	.	8r	8r	8r	.	8.ccn\	Do-	8r	8r
8F#\	5	4ccn\	4aa\	4F#\	San-	.	.	8dd\L	8dd\L
.	.	.	.	.	.	16cc\	-mi-	.	.
4F#\	.	.	.	.	.	4cc\	-nus	8dd\	8dd\
.	.	8cc\	8aa\	8F#\	-ctus	.	.	8dd\J	8dd\J
=3	=3	=3	=3	=3	=3	=3	=3	=3	=3
8.G\L	.	8.gg\L	8.bb\L	8.G\	Do-	8r	.	4dd\	4dd\
.	.	.	.	.	.	4b\	San-	.	.
16G\Jk	.	16gg\Jk	16bb\Jk	16G\	-mi-	.	.	.	.
4G\	.	4gg\	4bb\	4G\	-nus	.	.	4r	4r
!	!	!	!	!	!	!	!LO:MO:mod=-ctus	!	!
.	.	.	.	.	.	8cc#X\	-cto	.	.
8r	.	8r	8r	8r	.	8.dd\	Do-	8r	8r
*	*	*	*	*	*ij	*	*	*	*
4G#X\	.	4dd\	4bb\	4G#X\	San-	.	.	8ee\L	8ee\L
.	.	.	.	.	.	16dd\	-mi-	.	.
.	.	.	.	.	.	4dd\	-nus	8ee\	8ee\
8G#\	.	8dd\	8bb\	8G#\	-ctus	.	.	8ee\J	8ee\J
!	!	!	!	!	!	!LO:LB:g=original	!	!	!
=4	=4	=4	=4	=4	=4	=4	=4	=4	=4
8.A\L	.	8.aa\L	8.ccc#\L	8.A\	Do-	8r	.	4ee\	4ee\
.	.	.	.	.	.	4ee\	San-	.	.
16A\Jk	.	16aa\Jk	16ccc#\Jk	16A\	-mi-	.	.	.	.
4A\	.	4aa\	4ccc#\	4A\	-nus	.	.	4r	4r
*	*	*	*	*	*Xij	*	*	*	*
.	.	.	.	.	.	8ff#\	-ctus	.	.
8r	.	8r	8r	8r	.	8.gg\	.	8r	8r
4A\	.	8cc#\L	8ee\L	4A\	San-	.	.	8a/L	8ee\L
.	.	.	.	.	.	16gg\	Do-	.	.
.	.	8cc#\	8ee\	.	.	4gg\	-mi-	8a/	8ee\
!	!	!	!	!LO:N:vis=4	!	!	!	!	!
8c#\	.	8cc#\J	8ee\J	8c#\	-ctus	.	.	8a/J	8ee\J
=5	=5	=5	=5	=5	=5	=5	=5	=5	=5
!	!	!	!LO:N:vis=8.	!	!	!	!	!	!
8d\L	.	4.dd\	4.ff#\L	8d\L	Do-	8ff#\L	-nus	4.dd\	4.ff#\
8c#\	.	.	.	8c#\J	.	8ee\J	.	.	.
8B\	.	.	.	8B\L	.	8dd\L	.	.	.
!	!	!	!LO:N:vis=16	!	!	!	!	!	!
8A\J	.	8ff#\	8aa\J	8A\J	.	8cc#\J	.	8ff#\	8aa\
!	!	!	!	!	!	!	!	!	!LO:LB:g=original
8.G\L	.	4.gg\	4.bb\	8.G\	-mi-	8.dd\	.	4.gg\	4.bb\
16F#\Jk	.	.	.	16F#\	.	16dd\	De-	.	.
!	!	!	!	!LO:LB:g=original	!	!	!	!	!
8G\L	.	.	.	8G\L	-nus	4dd\	-us	.	.
8B\J	.	8dd\	8gg\	8B\J	.	.	.	8ee\	8gg\
=6	=6	=6	=6	=6	=6	=6	=6	=6	=6
!LO:TX:a:t=P:problem=mixed beam	!	!	!	!	!	!	!	!	!
8A\L	.	8ff#\L	8aa\L	8A\	De-	8ee\	Sab-	8ff#\L	8aa\L
8G\	.	16ee\L	16gg\L	8G\	-us	8ee\	-ba-	16ee\L	16gg\L
.	.	16dd\JJ	16ff#\JJ	.	.	.	.	16dd\JJ	16ff#\JJ
8A\	.	8cc#\L	8ee\L	8A\	Sab-	8.ee\	-oth	8.a/L	8.ee\L
8AA/J	.	8cc#\J	8ee\J	8AA/	-ba-	.	.	.	.
.	.	.	.	.	.	16ee\	Sab-	16a/Jk	16ee\Jk
!LO:PB:g=original	!	!	!	!	!	!	!	!LO:TX:a:t=P:problem=mixed beam	!
8D/L	.	8dd\L	8dd\L	8D/	-oth	8dd\	-ba-	8f#/L	8dd\L
8D/	.	8a\J	8ccn\J	4D/	Sab-	8ccn\	.	8dd\	8dd\
8D/	.	8g/L	8b/L	.	.	8b\	.	8dd\	8dd\
8D/J	.	8c#/J	8a/J	8D/	-ba-	8g\	.	8dd\J	8dd\J
=7	=7	=7	=7	=7	=7	=7	=7	=7	=7
!	!	!	!	!	!	!LO:TX:t=P:problem=w źródle "Verte KochanKu" zapisane za taktem 7, na pięciolinii	!	!	!
!	!	!	!	!	!	!LO:TX:b:t=Verte \nKochanKu:mod=	!	!LO:SIC:v:s=1d	!
1D	.	1d	1a	1D	-oth.	1a	-oth.	1e	1dd
!	!	!	!LO:PB:g=original	!	!	!LO:PB:g=original	!	!LO:LB:g=original	!
=8||	=8||	=8||	=8||	=8||	=8||	=8||	=8||	=8||	=8||
!!!OMD:
!!!OMD-mod: Allegro
*M3/4	*	*M3/4	*M3/4	*M3/4	*	*M3/4	*	*M3/4	*M3/4
!LO:TX:b:mod=:t=Pleni sunt caeli	!	!	!	!	!	!	!	!LO:TX:b:mod=:t=Pleni sunt. Caeli	!LO:TX:b:mod=:t=Pleni sunt.
!LO:TX:a:mod=:t=all(egr)o	!	!LO:TX:a:mod=:t=all(egr)o.	!LO:TX:a:mod=:t=Allegro	!LO:TX:a:mod=:t=all(egr)o	!	!LO:TX:a:mod=:t=All(egr)o	!	!LO:TX:a:mod=:t=all(egr)o	!LO:TX:a:mod=:t=all(egr)o
4d\	.	4d/	4ff# 4a 4d/	0.r	.	0.r	.	4d/	4d/
4d\	.	4d/	4ff# 4a 4d/	.	.	.	.	4d/	4d/
4d\	.	4d/	4ff# 4a 4d/	.	.	.	.	4d/	4d/
=9	=9	=9	=9	=9	=9	=9	=9	=9	=9
!	!	!LO:TX:b:mod=:t=Pleni sunt caeli	!LO:TX:b:mod=:t=Pleni sunt.	!	!	!	!	!	!
4d\	.	4dd\	4dd\	.	.	.	.	4dd\	4dd\
!	!	!LO:TX:a:t=P:problem=mixed beam	!LO:TX:a:t=P:problem=mixed beam	!	!	!	!	!	!
8c#\L	.	8cc#\L	8cc#\L	.	.	.	.	4r	4r
8d\	.	8dd\	8dd\	.	.	.	.	.	.
8e\	.	8ee\	8ee\	.	.	.	.	4a/	4a/
8G\J	.	8g/J	8g/J	.	.	.	.	.	.
=10	=10	=10	=10	=10	=10	=10	=10	=10	=10
4F#\	.	4f#/	4f#/	.	.	.	.	4d/	4d/
8E\L	.	8e/L	8e/L	.	.	.	.	4d/	4d/
8F#\J	.	8f#/J	8f#/J	.	.	.	.	.	.
4D\	.	4d/	4d/	.	.	.	.	4d/	4d/
=11	=11	=11	=11	=11	=11	=11	=11	=11	=11
4D\	.	4ff#\	(16aa\LL	.	.	.	.	4ff#\	4aa\
.	.	.	16ff#\J)	.	.	.	.	.	.
.	.	.	8dd\J	.	.	.	.	.	.
4D\	.	4ff#\	(16aa\LL	.	.	.	.	4ff#\	4aa\
.	.	.	16ff#\J)	.	.	.	.	.	.
.	.	.	8dd\J	.	.	.	.	.	.
4D\	.	4ff#\	(16aa\LL	.	.	.	.	4ff#\	4aa\
.	.	.	16ff#\J)	.	.	.	.	.	.
.	.	.	8dd\J	.	.	.	.	.	.
=12	=12	=12	=12	=12	=12	=12	=12	=12	=12
4G\	.	4gg\	4bb\	0.r	.	0.r	.	4gg\	4bb\
4D\	.	4ff#\	4aa\	.	.	.	.	4ff#\	4aa\
4r	.	4r	4r	.	.	.	.	4r	4r
!	!	!LO:LB:g=original	!	!	!	!	!	!	!
=13	=13	=13	=13	=13	=13	=13	=13	=13	=13
!	!	!	!LO:SIC:s=(16aLL	!	!	!	!	!	!
4D\	.	4f#/	16a/LL	.	.	.	.	4d/	4d/
!	!	!	!LO:SIC:s=16f#J)	!	!	!	!	!	!
.	.	.	(16f#/J	.	.	.	.	.	.
!	!	!	!LO:SIC:s=8dJ	!	!	!	!	!	!
.	.	.	8d/J)	.	.	.	.	.	.
!	!	!	!LO:SIC:s=(16aLL	!	!	!	!	!	!
4D\	.	4f#/	16a/LL	.	.	.	.	4d/	4d/
!	!	!	!LO:SIC:s=16f#J)	!	!	!	!	!	!
.	.	.	(16f#/J	.	.	.	.	.	.
!	!	!	!LO:SIC:s=8dJ	!	!	!	!	!	!
.	.	.	8d/J)	.	.	.	.	.	.
!	!	!	!LO:SIC:s=(16aLL	!	!	!	!	!	!
4D\	.	4f#/	16a/LL	.	.	.	.	4d/	4d/
!	!	!	!LO:SIC:s=16f#J)	!	!	!	!	!	!
.	.	.	(16f#/J	.	.	.	.	.	.
!	!	!	!LO:SIC:s=8dJ	!	!	!	!	!	!
.	.	.	8d/J)	.	.	.	.	.	.
=14	=14	=14	=14	=14	=14	=14	=14	=14	=14
4G\	.	4g/	4b/	.	.	.	.	4d/	4d/
4D\	.	4f#/	4a/	.	.	.	.	4d/	4d/
4r	.	4r	4r	.	.	.	.	4r	4r
=15	=15	=15	=15	=15	=15	=15	=15	=15	=15
*2\right	*	*	*	*	*	*	*	*	*
[<2.A\	.	8ee\	8gg\	.	.	.	.	4ee\	4gg\
.	.	4dd\	4ff#\	.	.	.	.	.	.
*	*	*	*	*	*	*	*	*2\right	*2\right
*	*	*	*	*	*	*	*	*tremolo	*tremolo
.	.	.	.	.	.	.	.	8ee\L	8gg\L
.	.	4cc#\	4ee\	.	.	.	.	8ee\	8gg\
.	.	.	.	.	.	.	.	8ee\	8gg\
.	.	8ee\	8gg\	.	.	.	.	8ee\J	8gg\J
*	*	*	*	*	*	*	*	*Xtremolo	*Xtremolo
!	!	!	!	!	!	!	!	!	!LO:LB:g=original
=16	=16	=16	=16	=16	=16	=16	=16	=16	=16
2.A\_<	.	8ff#\	8aa\	0.r	.	0.r	.	4ff#\	4aa\
.	.	4ee\	4gg\	.	.	.	.	.	.
.	.	.	.	.	.	.	.	8ff#\L	8aa\L
.	.	4dd\	4ff#\	.	.	.	.	8ff#\	8aa\
.	.	.	.	.	.	.	.	8ff#\	8aa\
.	.	8ff#\	8aa\	.	.	.	.	8ff#\J	8aa\J
!	!	!	!LO:LB:g=original	!	!	!	!	!	!
=17	=17	=17	=17	=17	=17	=17	=17	=17	=17
2.A\_<	.	8gg\	8bb\	.	.	.	.	4gg\	4bb\
.	.	4ff#\	4aa\	.	.	.	.	.	.
*	*	*	*	*	*	*	*	*tremolo	*
.	.	.	.	.	.	.	.	8gg\L	8bb\L
.	.	4ee\	4gg\	.	.	.	.	8gg\	8bb\
.	.	.	.	.	.	.	.	8gg\	8bb\
.	.	8gg\	8bb\	.	.	.	.	8gg\J	8bb\J
*	*	*	*	*	*	*	*	*Xtremolo	*
!	!	!	!	!	!	!	!	!LO:LB:g=original	!
=18	=18	=18	=18	=18	=18	=18	=18	=18	=18
!	!	!LO:MO:mod=8.eeL	!	!	!	!	!	!	!
4A\]	.	8ee\L	8.ccc#\L	.	.	.	.	4a/	4a/
!	!	!LO:MO:null:mod=.	!	!	!	!	!	!	!
.	.	16dd\L	.	.	.	.	.	.	.
!	!	!LO:MO:mod=32ddLL	!	!	!	!	!	!	!
.	.	16ee\JJ	32bb\LL	.	.	.	.	.	.
!	!	!LO:MO:null:mod=32eeJJJ	!	!	!	!	!	!	!
.	.	.	32ccc#\JJJ	.	.	.	.	.	.
4G\	.	4ff#\	4ddd\	.	.	.	.	4r	4r
!LO:SIC:v:s=8AL	!	!	!	!	!	!	!	!	!
8F#\L	.	4cc#\	4ee\	.	.	.	.	4a/	4a/
8C#\J	.	.	.	.	.	.	.	.	.
=19	=19	=19	=19	=19	=19	=19	=19	=19	=19
4D/	.	8.dd\L	8.ff#\L	.	.	.	.	4a/	4a/
.	.	32cc#\LL	32ee\LL	.	.	.	.	.	.
.	.	32dd\JJJ	32ff#\JJJ	.	.	.	.	.	.
!LO:LB:g=original	!	!	!	!	!	!	!	!	!
4F#\	6	4ee\	4gg\	.	.	.	.	4r	4r
4A\	.	4cc#\	4ee\	.	.	.	.	4a/	4a/
=20	=20	=20	=20	=20	=20	=20	=20	=20	=20
!	!	!	!	!	!	!	!	!LO:TX:a:t=P:problem=mixed beam	!
8d\L	.	8dd\L	8ff#\L	2.r	.	2.r	.	8dd\L	8ff#\L
!	!	!	!	!	!	!	!	!LO:SIC:v:s=8bJ	!
8G\J	.	8b\J	8dd\J	.	.	.	.	8a/J	8dd\J
*	*	*2\right	*2\right	*	*	*	*	*	*
4A\	.	2cc#\	2ee\	.	.	.	.	2a/	2ee\
4AA/	.	.	.	.	.	.	.	.	.
=21	=21	=21	=21	=21	=21	=21	=21	=21	=21
4D/	.	4dd\|	4dd\|	4D/	Ple-	4ff#\	Ple-	4dd\	4dd\
4D/	.	4dd\|	4dd\|	4D/	-ni	4ff#\	-ni	4dd\	4dd\
4D/	.	4dd\|	4dd\|	4D/	sunt	4ff#\	sunt	4dd\	4dd\
=22	=22	=22	=22	=22	=22	=22	=22	=22	=22
!	!	!	!	!	!	!	!LO:MO:mod=Cae-	!	!
4D/	.	4dd\	4dd\	4D/	Cae-	4ff#\	cae-	4dd\	4dd\
!	!	!LO:TX:a:t=P:problem=mixed beam	!LO:TX:a:t=P:problem=mixed beam	!	!	!	!	!	!
8C#/L	.	8cc#\L	8cc#\L	4A\	-li	4ee\	-li	4r	4r
8D/	.	8dd\	8dd\	.	.	.	.	.	.
8E/	.	8ee\	8ee\	4AA/	et	4ee\	et	4a/	4a/
8AA/J	.	8g/J	8g/J	.	.	.	.	.	.
=23	=23	=23	=23	=23	=23	=23	=23	=23	=23
4F#\	.	4f#/	4f#/	4D/	ter-	4ff#\	ter-	4d/	4d/
!	!	!	!	!	!	!	!LO:MO:mod=-ra	!	!
8E\L	.	8e/L	8e/L	4D/	-ra	4ff#\	-ra.	4d/	4d/
8F#\J	.	8f#/J	8f#/J	.	.	.	.	.	.
4D\	.	4d/	4d/	4r	.	4r	.	4d/	4d/
=24	=24	=24	=24	=24	=24	=24	=24	=24	=24
!	!	!	!LO:SIC:s=(16aaLL	!	!	!	!	!	!
4D\	.	4ff#\	16aa\LL	4D/	Glo-	4ff#\	Glo-	4ff#\	4aa\
!	!	!	!LO:SIC:s=16ff#J)	!	!	!	!	!	!
.	.	.	(16ff#\J	.	.	.	.	.	.
!	!	!	!LO:SIC:s=8ddJ	!	!	!	!	!	!
.	.	.	8dd\J)	.	.	.	.	.	.
!	!	!	!LO:SIC:s=(16aaLL	!	!	!	!	!	!
4D\	.	4ff#\	16aa\LL	4D/	-ri-	4ff#\	-ri-	4ff#\	4aa\
!	!	!	!LO:SIC:s=16ff#J)	!	!	!	!	!	!
.	.	.	(16ff#\J	.	.	.	.	.	.
!	!	!	!LO:SIC:s=8ddJ	!	!	!	!	!	!
.	.	.	8dd\J)	.	.	.	.	.	.
!	!	!	!LO:SIC:s=(16aaLL	!	!	!	!	!	!
4D\	.	4ff#\	16aa\LL	4D/	-a	4ff#\	-a	4ff#\	4aa\
!	!	!	!LO:SIC:s=16ff#J)	!	!	!	!	!	!
.	.	.	(16ff#\J	.	.	.	.	.	.
!	!	!	!LO:SIC:s=8ddJ	!	!	!	!	!	!
.	.	.	8dd\J)	.	.	.	.	.	.
!	!	!	!	!LO:LB:g=original	!	!	!	!	!
=25	=25	=25	=25	=25	=25	=25	=25	=25	=25
4G\	.	4gg\	4bb\	4G\	tu-	4b\	tu-	4gg\	4bb\
!	!	!	!	!LO:SIC:v:s=4D	!	!	!	!	!
4D\	.	4ff#\	4aa\	4AA/	-a	4a\	-a	4ff#\	4aa\
4r	.	4r	4r	4r	.	4r	.	4r	4r
=26	=26	=26	=26	=26	=26	=26	=26	=26	=26
!	!	!	!LO:SIC:s=(16aLL	!LO:N:vis=1	!	!LO:N:vis=0	!	!	!
4D\	.	4f#/	16a/LL	1.r	.	1.r	.	4d/	4d/
!	!	!	!LO:SIC:s=16f#J)	!	!	!	!	!	!
.	.	.	(16f#/J	.	.	.	.	.	.
!	!	!	!LO:SIC:s=8dJ	!	!	!	!	!	!
.	.	.	8d/J)	.	.	.	.	.	.
!	!	!	!LO:LB:g=original	!	!	!	!	!	!
!	!	!	!LO:SIC:s=(16aLL	!	!	!	!	!	!
4D\	.	4f#/	16a/LL	.	.	.	.	4d/	4d/
!	!	!	!LO:SIC:s=16f#J)	!	!	!	!	!	!
.	.	.	(16f#/J	.	.	.	.	.	.
!	!	!	!LO:SIC:s=8dJ	!	!	!	!	!	!
.	.	.	8d/J)	.	.	.	.	.	.
!	!	!	!LO:SIC:s=(16aLL	!	!	!	!	!	!
4D\	.	4f#/	16a/LL	.	.	.	.	4d/	4d/
!	!	!	!LO:SIC:s=16f#J)	!	!	!	!	!	!
.	.	.	(16f#/J	.	.	.	.	.	.
!	!	!	!LO:SIC:s=8dJ	!	!	!	!	!	!
.	.	.	8d/J)	.	.	.	.	.	.
=27	=27	=27	=27	=27	=27	=27	=27	=27	=27
4G\	.	4g/	4b/	.	.	.	.	4d/	4d/
4D\	.	4f#/	4a/	.	.	.	.	4d/	4d/
4r	.	4r	4r	.	.	.	.	4r	4r
!	!	!	!	!	!	!	!	!	!LO:PB:g=original
=28	=28	=28	=28	=28	=28	=28	=28	=28	=28
*	*	*	*	*2\right	*	*	*	*	*
[<2.A\	.	8ee\	8gg\	[<2.A\	O-	4r	.	1.r	1.r
.	.	4dd\	4ff#\	.	.	.	.	.	.
.	.	.	.	.	.	4cc#\	O-	.	.
.	.	4cc#\	4ee\	.	.	.	.	.	.
.	.	.	.	.	.	4ee\	.	.	.
.	.	8ee\	8gg\	.	.	.	.	.	.
!	!	!LO:LB:g=original	!	!	!	!	!	!	!
=29	=29	=29	=29	=29	=29	=29	=29	=29	=29
2.A\_<	.	8ff#\	8aa\	2.A\_<	-san-	4r	.	.	.
.	.	4ee\	4gg\	.	.	.	.	.	.
.	.	.	.	.	.	4dd\	-san-	.	.
.	.	4dd\	4ff#\	.	.	.	.	.	.
.	.	.	.	.	.	4ff#\	-na	.	.
.	.	8ff#\	8aa\	.	.	.	.	.	.
=30	=30	=30	=30	=30	=30	=30	=30	=30	=30
2.A\_<	.	8gg\	8bb\	2.A\]	-na	4r	.	2.r	2.r
.	.	4ff#\	4aa\	.	.	.	.	.	.
.	.	.	.	.	.	4ee\	o-	.	.
.	.	4ee\	4gg\	.	.	.	.	.	.
.	.	.	.	.	.	4gg\	.	.	.
.	.	8gg\	8bb\	.	.	.	.	.	.
!	!	!	!	!	!	!	!	!LO:LB:g=original	!
=31	=31	=31	=31	=31	=31	=31	=31	=31	=31
!	!	!	!	!	!	!LO:TX:a:t=problem&colon;laseczki półnut w dół z prawej strony	!	!	!
*	*	*	*	*	*	*2\right	*	*tremolo	*tremolo
4A\]	.	4ee\	4ccc#\	4A\	in	2ee\	-san-	8a/L	8ee\L
.	.	.	.	.	.	.	.	8a/	8ee\
4B\	.	4ff#\	4ddd\	4B\	.	.	.	8a/	8ee\
.	.	.	.	.	.	.	.	8a/J	8ee\J
*	*	*	*	*	*	*	*	*Xtremolo	*Xtremolo
!	!	!	!	!	!	!LO:LB:g=original	!	!LO:SIC:v:s=8eeL	!LO:SIC:v:s=8ggL
!	!	!	!	!	!	!LO:SIC:v:s=4gg	!	!	!
4c#\	.	4ee\	4gg\	4c#\	ex-	4ff#\	-na	8dd\L	8ff#\L
!	!	!	!	!	!	!	!	!LO:SIC:v:s=8eeJ	!LO:SIC:v:s=8ggJ
.	.	.	.	.	.	.	.	8dd\J	8ff#\J
!LO:LB:g=original	!	!	!	!	!	!	!	!	!
=32	=32	=32	=32	=32	=32	=32	=32	=32	=32
!	!	!	!	!	!LO:MO:mod=-cel-	!LO:SIC:v:s=8ff#	!	!LO:SIC:v:s=4dd	!LO:SIC:v:s=4ff#
8d\L	.	4dd\	8ff#\L	4d\	-Cel-	8gg\	in	4ee\	4gg\
8G\J	.	.	8dd\J	.	.	8ff#\	ex-	.	.
!	!	!	!	!	!	!	!LO:MO:mod=-cel	!	!
4A\	.	2cc#\	2ee\	4A\	.	2ee\	-cael-	2a/	2ee\
4AA/	#	.	.	4AA/	.	.	.	.	.
=33	=33	=33	=33	=33	=33	=33	=33	=33	=33
4D/	.	4dd\|	4dd\|	4D/	-sis	4dd\	-sis	4dd\	4ff#\
4d\	.	4dd\|	4dd\|	4r	.	4r	.	4r	4r
4d\	.	4dd\|	4dd\|	4r	.	4r	.	4r	4r
=34	=34	=34	=34	=34	=34	=34	=34	=34	=34
!	!	!LO:MO:mod=4dd	!	!	!	!	!	!	!
4d\	.	8dd\L	4dd\	4r	.	4r	.	0.r	0.r
!	!	!LO:MO:null:mod=.	!	!	!	!	!	!	!
.	.	8cc#\	.	.	.	.	.	.	.
!	!	!LO:SIC:v:s=8cc#L	!	!	!	!	!	!	!
8c#\L	.	8dd\	8cc#\L	4r	.	4r	.	.	.
!	!	!LO:SIC:v:s=8dd	!	!	!	!	!	!	!
8d\	.	8ee\J	8dd\	.	.	.	.	.	.
!	!	!LO:SIC:v:s=8ee	!	!	!	!	!	!	!
8e\	.	8g/L	8ee\	4A\	O-	4ee\	O-	.	.
8G\J	.	8g/J	8g\J	.	.	.	.	.	.
=35	=35	=35	=35	=35	=35	=35	=35	=35	=35
[<2.A\	.	8ee\	8gg\	[<2.A\	-san-	4cc#\	-san-	.	.
.	.	4dd\	4ff#\	.	.	.	.	.	.
.	.	.	.	.	.	4ee\	-na	.	.
.	.	4cc#\	4ee\	.	.	.	.	.	.
.	.	.	.	.	.	4r	.	.	.
.	.	8ee\	8gg\	.	.	.	.	.	.
=36	=36	=36	=36	=36	=36	=36	=36	=36	=36
2.A\_<	.	8ff#\	8aa\	2.A\_<	.	4dd\	in	.	.
.	.	4ee\	4gg\	.	.	.	.	.	.
.	.	.	.	.	.	4ff#\	ex-	.	.
.	.	4dd\	4ff#\	.	.	.	.	.	.
.	.	.	.	.	.	4r	.	.	.
!	!	!	!LO:LB:g=original	!	!	!	!	!	!
.	.	8ff#\	8aa\	.	.	.	.	.	.
=37	=37	=37	=37	=37	=37	=37	=37	=37	=37
!	!	!	!	!	!	!	!LO:MO:mod=-cel-	!	!
2.A\_<	.	8gg\	8bb\	2.A\]	-na	4ee\	-cael-	.	.
.	.	4ff#\	4aa\	.	.	.	.	.	.
.	.	.	.	.	.	4gg\	-sis	.	.
.	.	4ee\	4gg\	.	.	.	.	.	.
.	.	.	.	.	.	4r	.	.	.
.	.	8gg\	8bb\	.	.	.	.	.	.
=38	=38	=38	=38	=38	=38	=38	=38	=38	=38
4A\]	.	4ee\	4ccc#\	4A\	in	2ee\	in	4a/	4ee\
*	*	*	*	*	*	*	*	*	*tremolo
!	!	!	!	!LO:LB:g=original	!	!	!	!	!
4B\	.	4ff#\	4ddd\	4B\	ex-	.	.	8a/L	8ee\L
.	.	.	.	.	.	.	.	8a/	8ee\
!	!	!	!	!	!	!LO:SIC:v:s=4gg	!	!	!
4c#\	.	4ee\	4gg\	4c#\	.	4ff#\	ex-	8a/	8ee\
.	.	.	.	.	.	.	.	8a/J	8ee\J
*	*	*	*	*	*	*	*	*	*Xtremolo
=39	=39	=39	=39	=39	=39	=39	=39	=39	=39
!	!	!	!	!	!LO:MO:mod=-cel-	!LO:SIC:v:s=8ff#	!LO:MO:mod=-cel-	!	!
4d\	.	4dd\	8ff#\L	4d\	-Cel-	8gg\	-cael-	4dd\	4ff#\
.	.	.	8dd\J	.	.	8ff#\	.	.	.
4A\	.	2cc#\	2ee\	4A\	.	2ee\	.	4a/	4ee\
4AA/	.	.	.	4AA/	.	.	.	4a/	4ee\
=40	=40	=40	=40	=40	=40	=40	=40	=40	=40
4D/	.	4dd\|	4dd 4d\|	4D/	-sis	4dd\	-sis	4dd\	4dd\
4d\	.	4dd\|	4dd 4d\|	4r	.	4r	.	4dd\	4dd\
4d\	.	4dd\|	4dd 4d\|	4r	.	4r	.	4dd\	4dd\
=41	=41	=41	=41	=41	=41	=41	=41	=41	=41
!	!	!	!	!LO:N:vis=1	!	!LO:N:vis=0	!	!	!
4d\	.	4dd\	4dd\	1.r	.	1.r	.	4dd\	4dd\
!	!	!LO:TX:a:t=P:problem=mixed beam	!LO:TX:a:t=P:problem=mixed beam	!	!	!	!	!	!
8c#\L	.	8cc#\L	8cc#\L	.	.	.	.	4r	4r
8d\	.	8dd\	8dd\	.	.	.	.	.	.
8e\	.	8ee\	8ee\	.	.	.	.	4a/	4a/
8A\J	.	8e/J	8e/J	.	.	.	.	.	.
=42	=42	=42	=42	=42	=42	=42	=42	=42	=42
2.D/	.	2.d/	2.f#/	.	.	.	.	4d/	4d/
.	.	.	.	.	.	.	.	4r	4r
.	.	.	.	.	.	.	.	4r	4r
==	==	==	==	==	==	==	==	==	==
*-	*-	*-	*-	*-	*-	*-	*-	*-	*-
!!!system-decoration: [(g1)][(g2)][(g3)]s7
!!!RDF**kern: > = above
!!!RDF**kern: < = below
!!!RDF**kern: | = vertical stroke
!!!filter-modern: sic -sq | shed -e "s/TX(.*):t=P:/tx$1:t=P:/LG" | shed -e "s/^(\d+[\/\\]right)/$1yy/I; s/^(\d+[\/\\]left)/$1yy/I" | shed -k -e "s/:TUP:/:tup:/L" | shed -e "s/:rj/:RJ/L" | shed -e "s/yy//" | modori -m | shed -e "s/LO:DY:(a|b|rj)/LO:dy:$1/L" | autostem -r | tie -s | shed -k -e "s/[<>]//g" | humtr -p
!!!ENC: Andrzej Kubiczek
!!!END: 2020-04-19
!!!EED: Antoni Szymański
!!!EEV: 2020-10-02
!!!ENC-modern: Andrzej Borzym
!!!END-modern: 2022-06-30
